X: 739
P: Longways for as many as will
M: 2/2
L: 1/8
K: Bb
|:\
f2ed c2d2 | (ed) (cB) c2 (BA) | B2(BG) F2B2 | G2(FE) D2d2 |\
e2z2 f2(ed) | (c=B)c2 (cde2) | c2cd e2dc | d2(cB) (AB)c2 |\

